package/converter/svg/solid/caravan-simple.svg

<svg xmlns="http://www.w3.org/2000/svg" viewBox="0 0 640 512"><!-- Font Awesome Pro 6.0.0-alpha2 by @fontawesome - https://fontawesome.com License - https://fontawesome.com/license (Commercial License) --><path d="M624 352H576V192C576 103.625 504.375 32 416 32H64C28.625 32 0 60.625 0 96V352C0 387.375 28.625 416 64 416H96C96 469 139 512 192 512S288 469 288 416H624C632.875 416 640 408.875 640 400V368C640 359.125 632.875 352 624 352ZM192 464C165.5 464 144 442.5 144 416S165.5 368 192 368S240 389.5 240 416S218.5 464 192 464ZM256 224C256 241.625 241.625 256 224 256H96C78.375 256 64 241.625 64 224V160C64 142.375 78.375 128 96 128H224C241.625 128 256 142.375 256 160V224ZM448 224C448 241.625 433.625 256 416 256H352C334.375 256 320 241.625 320 224V160C320 142.375 334.375 128 352 128H416C433.625 128 448 142.375 448 160V224Z"/></svg>

<svg xmlns="http://www.w3.org/2000/svg" viewBox="0 0 640 512"><!--! Font Awesome Pro 6.6.0 by @fontawesome - https://fontawesome.com License - https://fontawesome.com/license (Commercial License) Copyright 2024 Fonticons, Inc. --><path d="M80 32C35.8 32 0 67.8 0 112L0 336c0 44.2 35.8 80 80 80l16 0c0 53 43 96 96 96s96-43 96-96l288 0 32 0c17.7 0 32-14.3 32-32s-14.3-32-32-32l-32 0 0-160c0-88.4-71.6-160-160-160L80 32zM64 160c0-17.7 14.3-32 32-32l128 0c17.7 0 32 14.3 32 32l0 64c0 17.7-14.3 32-32 32L96 256c-17.7 0-32-14.3-32-32l0-64zm288-32l64 0c17.7 0 32 14.3 32 32l0 64c0 17.7-14.3 32-32 32l-64 0c-17.7 0-32-14.3-32-32l0-64c0-17.7 14.3-32 32-32zM144 416a48 48 0 1 1 96 0 48 48 0 1 1 -96 0z"/></svg>
